Numix-Circle/48x48/apps/accerciser.svg

<svg xmlns="http://www.w3.org/2000/svg" viewBox="0 0 48 48">
 <defs>
  <linearGradient id="linearGradient3764" x1="1" x2="47" gradientUnits="userSpaceOnUse" gradientTransform="matrix(0,-1,1,0,-1.5e-6,47.999998)">
   <stop style="stop-color:#cfbcad;stop-opacity:1"/>
   <stop offset="1" style="stop-color:#d6c6b9;stop-opacity:1"/>
  </linearGradient>
  <linearGradient id="linearGradient4326" y1="26" x2="0" y2="22" gradientUnits="userSpaceOnUse">
   <stop style="stop-color:#4c77ae;stop-opacity:1"/>
   <stop offset="0.516" style="stop-color:#547eb4;stop-opacity:1"/>
   <stop offset="1" style="stop-color:#4e7ab2;stop-opacity:1"/>
  </linearGradient>
 </defs>
 <g>
  <path d="m 36.31 5 c 5.859 4.062 9.688 10.831 9.688 18.5 c 0 12.426 -10.07 22.5 -22.5 22.5 c -7.669 0 -14.438 -3.828 -18.5 -9.688 c 1.037 1.822 2.306 3.499 3.781 4.969 c 4.085 3.712 9.514 5.969 15.469 5.969 c 12.703 0 23 -10.298 23 -23 c 0 -5.954 -2.256 -11.384 -5.969 -15.469 c -1.469 -1.475 -3.147 -2.744 -4.969 -3.781 z m 4.969 3.781 c 3.854 4.113 6.219 9.637 6.219 15.719 c 0 12.703 -10.297 23 -23 23 c -6.081 0 -11.606 -2.364 -15.719 -6.219 c 4.16 4.144 9.883 6.719 16.219 6.719 c 12.703 0 23 -10.298 23 -23 c 0 -6.335 -2.575 -12.06 -6.719 -16.219 z" style="opacity:0.05"/>
  <path d="m 41.28 8.781 c 3.712 4.085 5.969 9.514 5.969 15.469 c 0 12.703 -10.297 23 -23 23 c -5.954 0 -11.384 -2.256 -15.469 -5.969 c 4.113 3.854 9.637 6.219 15.719 6.219 c 12.703 0 23 -10.298 23 -23 c 0 -6.081 -2.364 -11.606 -6.219 -15.719 z" style="opacity:0.1"/>
  <path d="m 31.25 2.375 c 8.615 3.154 14.75 11.417 14.75 21.13 c 0 12.426 -10.07 22.5 -22.5 22.5 c -9.708 0 -17.971 -6.135 -21.12 -14.75 a 23 23 0 0 0 44.875 -7 a 23 23 0 0 0 -16 -21.875 z" style="opacity:0.2"/>
 </g>
 <g>
  <path d="m 24 1 c 12.703 0 23 10.297 23 23 c 0 12.703 -10.297 23 -23 23 -12.703 0 -23 -10.297 -23 -23 0 -12.703 10.297 -23 23 -23 z" style="fill:url(#linearGradient3764);fill-opacity:1"/>
 </g>
 <path d="m 17.5 15 c -0.831 0 -1.5 0.669 -1.5 1.5 l 0 2.5 c 0 -0.554 -0.446 -1 -1 -1 c -0.554 0 -1 0.446 -1 1 l 0 4 l -1 0 c -0.554 0 -1 0.446 -1 1 l 0 2 c 0 0.554 0.446 1 1 1 l 1 0 l 0 4 c 0 0.554 0.446 1 1 1 c 0.554 0 1 -0.446 1 -1 l 0 2.5 c 0 0.831 0.669 1.5 1.5 1.5 l 1 0 c 0.831 0 1.5 -0.669 1.5 -1.5 l 0 -6.5 l 10 0 l 0 6.5 c 0 0.831 0.669 1.5 1.5 1.5 l 1 0 c 0.831 0 1.5 -0.669 1.5 -1.5 l 0 -2.5 c 0 0.554 0.446 1 1 1 c 0.554 0 1 -0.446 1 -1 l 0 -4 l 1 0 c 0.554 0 1 -0.446 1 -1 l 0 -2 c 0 -0.554 -0.446 -1 -1 -1 l -1 0 l 0 -4 c 0 -0.554 -0.446 -1 -1 -1 c -0.554 0 -1 0.446 -1 1 l 0 -2.5 c 0 -0.831 -0.669 -1.5 -1.5 -1.5 l -1 0 c -0.831 0 -1.5 0.669 -1.5 1.5 l 0 6.5 l -10 0 l 0 -6.5 c 0 -0.831 -0.669 -1.5 -1.5 -1.5 l -1 0 z" style="fill:#000;fill-opacity:0.098;stroke:none;fill-rule:evenodd"/>
 <g>
  <path d="m 40.03 7.531 c 3.712 4.084 5.969 9.514 5.969 15.469 0 12.703 -10.297 23 -23 23 c -5.954 0 -11.384 -2.256 -15.469 -5.969 4.178 4.291 10.01 6.969 16.469 6.969 c 12.703 0 23 -10.298 23 -23 0 -6.462 -2.677 -12.291 -6.969 -16.469 z" style="opacity:0.1"/>
 </g>
 <g>
  <rect rx="1" y="22" x="11" height="4" width="26" style="fill:url(#linearGradient4326);fill-opacity:1;stroke:none;fill-rule:evenodd"/>
  <rect width="2" height="4" x="34" y="22" style="fill:#000;fill-opacity:0.098;stroke:none"/>
  <rect y="22" x="18" height="4" width="2" style="fill:#000;fill-opacity:0.098;stroke:none"/>
  <rect rx="1" y="17" x="13" height="14" width="2" style="fill:#e04c4c;fill-opacity:1;stroke:none"/>
  <rect rx="1.5" y="14" x="15" height="20" width="4" style="fill:#e25454;fill-opacity:1;stroke:none"/>
  <rect transform="scale(-1,1)" width="2" height="14" x="-35" y="17" rx="1" style="fill:#e04c4c;fill-opacity:1;stroke:none"/>
  <rect transform="scale(-1,1)" width="4" height="20" x="-33" y="14" rx="1.5" style="fill:#e25454;fill-opacity:1;stroke:none"/>
 </g>
</svg>

<?xml version="1.0" encoding="UTF-8" standalone="no"?>
<svg
   xmlns:dc="http://purl.org/dc/elements/1.1/"
   xmlns:cc="http://creativecommons.org/ns#"
   xmlns:rdf="http://www.w3.org/1999/02/22-rdf-syntax-ns#"
   xmlns:svg="http://www.w3.org/2000/svg"
   xmlns="http://www.w3.org/2000/svg"
   xmlns:xlink="http://www.w3.org/1999/xlink"
   xmlns:sodipodi="http://sodipodi.sourceforge.net/DTD/sodipodi-0.dtd"
   xmlns:inkscape="http://www.inkscape.org/namespaces/inkscape"
   viewBox="0 0 48 48"
   id="svg113"
   version="1.1"
   inkscape:version="0.91 r13725"
   sodipodi:docname="accerciser.svg">
  <metadata
     id="metadata180">
    <rdf:RDF>
      <cc:Work
         rdf:about="">
        <dc:format>image/svg+xml</dc:format>
        <dc:type
           rdf:resource="http://purl.org/dc/dcmitype/StillImage" />
        <dc:title />
      </cc:Work>
    </rdf:RDF>
  </metadata>
  <sodipodi:namedview
     pagecolor="#ffffff"
     bordercolor="#666666"
     borderopacity="1"
     objecttolerance="10"
     gridtolerance="10"
     guidetolerance="10"
     inkscape:pageopacity="0"
     inkscape:pageshadow="2"
     inkscape:window-width="1366"
     inkscape:window-height="713"
     id="namedview178"
     showgrid="false"
     inkscape:zoom="1"
     inkscape:cx="12.895761"
     inkscape:cy="22.495716"
     inkscape:window-x="0"
     inkscape:window-y="28"
     inkscape:window-maximized="1"
     inkscape:current-layer="svg113">
    <inkscape:grid
       type="xygrid"
       id="grid3508" />
  </sodipodi:namedview>
  <defs
     id="defs115">
    <linearGradient
       inkscape:collect="always"
       id="linearGradient4320">
      <stop
         style="stop-color:#4c77ae;stop-opacity:1"
         offset="0"
         id="stop4322" />
      <stop
         id="stop4328"
         offset="0.515625"
         style="stop-color:#547eb4;stop-opacity:1" />
      <stop
         style="stop-color:#4e7ab2;stop-opacity:1"
         offset="1"
         id="stop4324" />
    </linearGradient>
    <linearGradient
       id="linearGradient3764"
       x1="1"
       x2="47"
       gradientUnits="userSpaceOnUse"
       gradientTransform="matrix(0,-1,1,0,-1.5e-6,47.999998)">
      <stop
         stop-color="#cfbcad"
         stop-opacity="1"
         id="stop118" />
      <stop
         offset="1"
         stop-color="#d6c6b9"
         stop-opacity="1"
         id="stop120" />
    </linearGradient>
    <linearGradient
       inkscape:collect="always"
       xlink:href="#linearGradient4320"
       id="linearGradient4326"
       x1="24"
       y1="26"
       x2="24"
       y2="22"
       gradientUnits="userSpaceOnUse" />
  </defs>
  <g
     id="g132">
    <path
       d="m 36.31 5 c 5.859 4.062 9.688 10.831 9.688 18.5 c 0 12.426 -10.07 22.5 -22.5 22.5 c -7.669 0 -14.438 -3.828 -18.5 -9.688 c 1.037 1.822 2.306 3.499 3.781 4.969 c 4.085 3.712 9.514 5.969 15.469 5.969 c 12.703 0 23 -10.298 23 -23 c 0 -5.954 -2.256 -11.384 -5.969 -15.469 c -1.469 -1.475 -3.147 -2.744 -4.969 -3.781 z m 4.969 3.781 c 3.854 4.113 6.219 9.637 6.219 15.719 c 0 12.703 -10.297 23 -23 23 c -6.081 0 -11.606 -2.364 -15.719 -6.219 c 4.16 4.144 9.883 6.719 16.219 6.719 c 12.703 0 23 -10.298 23 -23 c 0 -6.335 -2.575 -12.06 -6.719 -16.219 z"
       opacity="0.05"
       id="path134" />
    <path
       d="m 41.28 8.781 c 3.712 4.085 5.969 9.514 5.969 15.469 c 0 12.703 -10.297 23 -23 23 c -5.954 0 -11.384 -2.256 -15.469 -5.969 c 4.113 3.854 9.637 6.219 15.719 6.219 c 12.703 0 23 -10.298 23 -23 c 0 -6.081 -2.364 -11.606 -6.219 -15.719 z"
       opacity="0.1"
       id="path136" />
    <path
       d="m 31.25 2.375 c 8.615 3.154 14.75 11.417 14.75 21.13 c 0 12.426 -10.07 22.5 -22.5 22.5 c -9.708 0 -17.971 -6.135 -21.12 -14.75 a 23 23 0 0 0 44.875 -7 a 23 23 0 0 0 -16 -21.875 z"
       opacity="0.2"
       id="path138" />
  </g>
  <g
     id="g140">
    <path
       d="m 24 1 c 12.703 0 23 10.297 23 23 c 0 12.703 -10.297 23 -23 23 -12.703 0 -23 -10.297 -23 -23 0 -12.703 10.297 -23 23 -23 z"
       fill="url(#linearGradient3764)"
       fill-opacity="1"
       id="path142" />
  </g>
  <g
     id="g144" />
  <path
     style="fill:#000000;fill-opacity:0.09803922;fill-rule:evenodd;stroke:none;stroke-width:0.92302972px;stroke-linecap:butt;stroke-linejoin:miter;stroke-opacity:1"
     d="M 17.5 15 C 16.669 15 16 15.669 16 16.5 L 16 19 C 16 18.446 15.554 18 15 18 C 14.446 18 14 18.446 14 19 L 14 23 L 13 23 C 12.446 23 12 23.446 12 24 L 12 26 C 12 26.554 12.446 27 13 27 L 14 27 L 14 31 C 14 31.554 14.446 32 15 32 C 15.554 32 16 31.554 16 31 L 16 33.5 C 16 34.331 16.669 35 17.5 35 L 18.5 35 C 19.331 35 20 34.331 20 33.5 L 20 27 L 30 27 L 30 33.5 C 30 34.331 30.669 35 31.5 35 L 32.5 35 C 33.331 35 34 34.331 34 33.5 L 34 31 C 34 31.554 34.446 32 35 32 C 35.554 32 36 31.554 36 31 L 36 27 L 37 27 C 37.554 27 38 26.554 38 26 L 38 24 C 38 23.446 37.554 23 37 23 L 36 23 L 36 19 C 36 18.446 35.554 18 35 18 C 34.446 18 34 18.446 34 19 L 34 16.5 C 34 15.669 33.331 15 32.5 15 L 31.5 15 C 30.669 15 30 15.669 30 16.5 L 30 23 L 20 23 L 20 16.5 C 20 15.669 19.331 15 18.5 15 L 17.5 15 z "
     id="rect4330" />
  <g
     id="g174">
    <path
       d="m 40.03 7.531 c 3.712 4.084 5.969 9.514 5.969 15.469 0 12.703 -10.297 23 -23 23 c -5.954 0 -11.384 -2.256 -15.469 -5.969 4.178 4.291 10.01 6.969 16.469 6.969 c 12.703 0 23 -10.298 23 -23 0 -6.462 -2.677 -12.291 -6.969 -16.469 z"
       opacity="0.1"
       id="path176" />
  </g>
  <g
     id="g4364">
    <rect
       ry="1"
       rx="1"
       y="22"
       x="11"
       height="4"
       width="26"
       id="rect3510"
       style="fill:url(#linearGradient4326);fill-opacity:1;fill-rule:evenodd;stroke:none;stroke-width:0.92302972px;stroke-linecap:butt;stroke-linejoin:miter;stroke-opacity:1" />
    <rect
       style="fill:#000000;fill-opacity:0.09803922;stroke:none"
       id="rect4343"
       width="2"
       height="4"
       x="34"
       y="22" />
    <rect
       y="22"
       x="18"
       height="4"
       width="2"
       id="rect4341"
       style="fill:#000000;fill-opacity:0.09803922;stroke:none" />
    <rect
       ry="1"
       rx="1"
       y="17"
       x="13"
       height="14"
       width="2"
       id="rect4312"
       style="fill:#e04c4c;fill-opacity:1;stroke:none" />
    <rect
       ry="1.5"
       rx="1.5"
       y="14"
       x="15"
       height="20"
       width="4"
       id="rect4314"
       style="fill:#e25454;fill-opacity:1;stroke:none" />
    <rect
       transform="scale(-1,1)"
       style="fill:#e04c4c;fill-opacity:1;stroke:none"
       id="rect4316"
       width="2"
       height="14"
       x="-35.000008"
       y="17"
       rx="1"
       ry="1" />
    <rect
       transform="scale(-1,1)"
       style="fill:#e25454;fill-opacity:1;stroke:none"
       id="rect4318"
       width="4"
       height="20"
       x="-33"
       y="14"
       rx="1.5"
       ry="1.5" />
  </g>
</svg>
